X:18614
T:Western Waltz
C:Andy De Jarlis
M:3/4
L:1/8
K:G
Bc|d2 e2 d2|_d2 =d3 c|B2 D2 G2|B3 B cB|!
A2 D2 F2|A4 dc|B2 G2 E2|D4 Bc|!
d2 e2 d2|_d2 =d3 c|B2 D2 G2|B3 B cB|!
A2 F2 A2|d2 c2 A2|G3 F GA|G4:|!
|:Bc|d2 z2 b2|c2 z2 a2|B2 g3 a|g3 d BG|!
F2 d3 d|d3 c BA|GA Bc de|d4 Bc|!
d2 z2 b2|c2 z2 a2|B2 g3 a|g3 d BG|!
F2 d3 d|f2 e2 f2|g3 f ga|[B4 g4]:|!


